icons/glyphs/glyph-google-g.svg

<?xml version="1.0" encoding="UTF-8" standalone="no"?><svg height="22" viewBox="0 0 5.8208332 5.8208335" width="22" xmlns="http://www.w3.org/2000/svg"><sodipodi:namedview/><metadata><rdf:RDF><cc:Work><dc:format>image/svg+xml</dc:format><dc:type/><dc:title/></cc:Work></rdf:RDF></metadata><path d="m2.9104167-.00000001c-1.6024043 0-2.90937936 1.30697491-2.90937936 2.90937951 0 1.6024041 1.30697506 2.9114539 2.90937936 2.9114539 1.6024044 0 2.9093793-1.3090498 2.9093793-2.9114539 0-.1313742-.012035-.2597388-.029045-.3865804h-.0027617-.7835336-2.0940341v.7793846h2.0926507c-.1831262.9922716-1.0456901 1.7399567-2.0926507 1.7399567-1.1814178 0-2.12999479-.9513431-2.12999479-2.1327609 0-1.1814182.94857699-2.12999505 2.12999479-2.12999505.2896149 0 .5649314.0576484.8160368.16113275l.2966731-.7171444c-.3431485-.14290405-.7188122-.22337284-1.1127148-.22337281z" fill="#d0d0d0"/></svg>

<?xml version="1.0" encoding="UTF-8" standalone="no"?>
<!-- Created with Inkscape (http://www.inkscape.org/) -->

<svg
   xmlns:dc="http://purl.org/dc/elements/1.1/"
   xmlns:cc="http://creativecommons.org/ns#"
   xmlns:rdf="http://www.w3.org/1999/02/22-rdf-syntax-ns#"
   xmlns:svg="http://www.w3.org/2000/svg"
   xmlns="http://www.w3.org/2000/svg"
   xmlns:sodipodi="http://sodipodi.sourceforge.net/DTD/sodipodi-0.dtd"
   xmlns:inkscape="http://www.inkscape.org/namespaces/inkscape"
   width="22"
   height="22"
   viewBox="0 0 5.8208332 5.8208335"
   version="1.1"
   id="svg8"
   inkscape:version="0.92+devel 15719 custom"
   sodipodi:docname="glyph-google-g.svg">
  <defs
     id="defs2" />
  <sodipodi:namedview
     id="base"
     pagecolor="#002466"
     bordercolor="#ffffff"
     borderopacity="0.37647059"
     inkscape:pageopacity="1"
     inkscape:pageshadow="2"
     inkscape:zoom="18.613637"
     inkscape:cx="19.420706"
     inkscape:cy="11.682471"
     inkscape:document-units="px"
     inkscape:current-layer="svg8"
     inkscape:document-rotation="0"
     showgrid="false"
     inkscape:showpageshadow="false"
     borderlayer="true"
     units="px"
     inkscape:window-width="1920"
     inkscape:window-height="1051"
     inkscape:window-x="0"
     inkscape:window-y="0"
     inkscape:window-maximized="1"
     inkscape:snap-object-midpoints="true"
     inkscape:snap-center="true" />
  <metadata
     id="metadata5">
    <rdf:RDF>
      <cc:Work
         rdf:about="">
        <dc:format>image/svg+xml</dc:format>
        <dc:type
           rdf:resource="http://purl.org/dc/dcmitype/StillImage" />
        <dc:title></dc:title>
      </cc:Work>
    </rdf:RDF>
  </metadata>
  <path
     style="color:#000000;font-style:normal;font-variant:normal;font-weight:normal;font-stretch:normal;font-size:medium;line-height:normal;font-family:sans-serif;font-variant-ligatures:normal;font-variant-position:normal;font-variant-caps:normal;font-variant-numeric:normal;font-variant-alternates:normal;font-variant-east-asian:normal;font-feature-settings:normal;text-indent:0;text-align:start;text-decoration:none;text-decoration-line:none;text-decoration-style:solid;text-decoration-color:#000000;letter-spacing:normal;word-spacing:normal;text-transform:none;writing-mode:lr-tb;direction:ltr;text-orientation:mixed;dominant-baseline:auto;baseline-shift:baseline;text-anchor:start;white-space:normal;shape-padding:0;clip-rule:nonzero;display:inline;overflow:visible;visibility:visible;isolation:auto;mix-blend-mode:normal;color-interpolation:sRGB;color-interpolation-filters:linearRGB;solid-color:#000000;solid-opacity:1;vector-effect:none;fill:#d0d0d0;fill-opacity:1;fill-rule:nonzero;stroke:none;stroke-width:0.77896959;stroke-linecap:butt;stroke-linejoin:miter;stroke-miterlimit:4;stroke-dasharray:none;stroke-dashoffset:0;stroke-opacity:1;color-rendering:auto;image-rendering:auto;shape-rendering:auto;text-rendering:auto;enable-background:accumulate"
     d="M 2.9104167,-1.4999997e-8 C 1.3080124,-1.4999997e-8 0.00103734,1.3069749 0.00103734,2.9093795 c 0,1.6024041 1.30697506,2.9114539 2.90937936,2.9114539 1.6024044,0 2.9093793,-1.3090498 2.9093793,-2.9114539 0,-0.1313742 -0.012035,-0.2597388 -0.029045,-0.3865804 H 5.7879893 5.0044557 2.9104216 V 3.3021837 H 5.0030723 C 4.8199461,4.2944553 3.9573822,5.0421404 2.9104216,5.0421404 c -1.1814178,0 -2.12999479,-0.9513431 -2.12999479,-2.1327609 0,-1.1814182 0.94857699,-2.12999505 2.12999479,-2.12999505 0.2896149,0 0.5649314,0.0576484 0.8160368,0.16113275 L 4.0231315,0.2233728 C 3.679983,0.08046875 3.3043193,-4.4999997e-8 2.9104167,-1.4999997e-8 Z"
     id="path4280"
     inkscape:connector-curvature="0"
     sodipodi:nodetypes="ssssccccccsssccs"
     inkscape:label="#" />
</svg>
